images/ra.svg

<?xml version="1.0" encoding="UTF-8" standalone="no"?><!DOCTYPE svg PUBLIC "-//W3C//DTD SVG 1.1//EN" "http://www.w3.org/Graphics/SVG/1.1/DTD/svg11.dtd"><svg width="100%" height="100%" viewBox="0 0 57 57" version="1.1" xmlns="http://www.w3.org/2000/svg" xmlns:xlink="http://www.w3.org/1999/xlink" xml:space="preserve" xmlns:serif="http://www.serif.com/" style="fill-rule:evenodd;clip-rule:evenodd;"><circle id="cir_1" cx="28.5" cy="28.5" r="24.5" style="fill:#fafafa;"/><circle id="cir_2" cx="28.5" cy="28.5" r="22.05" style="fill:#fafafa;stroke:#f00;stroke-width:2px;"/><g><path d="M21.976,14.723c-0.075,0.103 -0.193,0.593 -0.238,1.083c-0.059,0.49 -0.208,1.246 -0.326,1.692c-0.267,0.92 -1.395,3.235 -2.404,4.897c-1.395,2.315 -4.17,5.802 -5.877,7.39c-0.46,0.43 -0.831,0.846 -0.831,0.905c0,0.297 0.445,0.505 0.89,0.401c1.01,-0.223 4.022,-2.508 5.64,-4.274l0.653,-0.727l0.133,0.43c0.134,0.49 0,5.803 -0.208,8.058c-0.089,0.861 -0.311,2.271 -0.504,3.147l-0.371,1.573l0.297,0.949c0.474,1.484 0.89,2.108 1.454,2.167c0.401,0.044 0.519,-0.03 0.772,-0.445c0.593,-0.98 0.712,-2.271 0.801,-8.103c0.044,-3.042 0.163,-6.129 0.267,-6.871l0.178,-1.321l-0.593,-0.86l-0.609,-0.861l0.579,-0.89c0.312,-0.475 1.009,-1.648 1.528,-2.597c0.535,-0.95 1.277,-2.063 1.633,-2.494c0.846,-0.994 0.846,-1.32 0.029,-2.136c-1.023,-1.039 -2.493,-1.588 -2.893,-1.113Z" style="fill:#f00;fill-rule:nonzero;"/><path d="M30.553,15.776c-0.193,0.104 -0.43,0.371 -0.504,0.594c-0.134,0.356 -0.089,0.549 0.267,1.157c0.534,0.95 0.816,3.265 0.831,6.619l0,2.389l-0.401,0.089c-0.237,0.045 -1.914,0.282 -3.754,0.534c-1.841,0.238 -3.577,0.52 -3.874,0.594c-1.083,0.297 -0.831,0.935 0.683,1.647c1.113,0.535 1.499,0.535 4.452,-0.015c1.306,-0.237 2.493,-0.445 2.642,-0.445c0.237,0 0.252,0.267 0.252,3.636c0,2.092 -0.06,3.636 -0.134,3.636c-0.282,0 -5.594,0.757 -5.832,0.831c-0.816,0.252 -0.608,0.92 0.445,1.454c1.395,0.713 1.722,0.727 4.378,0.327c3.027,-0.475 4.69,-0.638 8.043,-0.831c3.25,-0.193 3.428,-0.223 3.74,-0.698c0.252,-0.386 0.252,-0.386 -0.519,-1.098c-1.38,-1.261 -2.093,-1.365 -5.521,-0.742c-0.935,0.163 -1.706,0.312 -1.721,0.312c-0.03,0 0.133,-7.213 0.178,-7.257c0.104,-0.104 3.606,-0.445 6.515,-0.609c3.279,-0.207 3.932,-0.356 3.932,-0.949c0,-0.713 -1.706,-1.87 -2.983,-1.989c-0.549,-0.044 -3.799,0.445 -7.167,1.113l-0.431,0.074l0.104,-1.899c0.149,-2.671 0.49,-5.016 0.846,-5.684c0.223,-0.43 0.252,-0.653 0.148,-0.92c-0.282,-0.727 -1.409,-1.439 -2.938,-1.84c-1.024,-0.267 -1.202,-0.267 -1.677,-0.03Z" style="fill:#f00;fill-rule:nonzero;"/></g></svg>

<?xml version="1.0" encoding="UTF-8" standalone="no"?>
<!DOCTYPE svg PUBLIC "-//W3C//DTD SVG 1.1//EN" "http://www.w3.org/Graphics/SVG/1.1/DTD/svg11.dtd">
<svg width="100%" height="100%" viewBox="0 0 57 57" version="1.1" xmlns="http://www.w3.org/2000/svg" xmlns:xlink="http://www.w3.org/1999/xlink" xml:space="preserve" xmlns:serif="http://www.serif.com/" style="fill-rule:evenodd;clip-rule:evenodd;">
    <g id="cir_1" transform="matrix(1.0198,0,0,1.03035,-0.0791987,-0.121408)">
        <circle cx="28.5" cy="28.5" r="24.5" style="fill:rgb(119,119,119);"/>
    </g>
    <circle id="cir_11" serif:id="cir_1" cx="28.5" cy="28.5" r="24.5" style="fill:rgb(250,250,250);"/>
    <circle id="cir_2" cx="28.5" cy="28.5" r="22.05" style="fill:rgb(250,250,250);stroke:rgb(255,0,0);stroke-width:2px;"/>
    <g>
        <path d="M21.976,14.723C21.901,14.826 21.783,15.316 21.738,15.806C21.679,16.296 21.53,17.052 21.412,17.498C21.145,18.418 20.017,20.733 19.008,22.395C17.613,24.71 14.838,28.197 13.131,29.785C12.671,30.215 12.3,30.631 12.3,30.69C12.3,30.987 12.745,31.195 13.19,31.091C14.2,30.868 17.212,28.583 18.83,26.817L19.483,26.09L19.616,26.52C19.75,27.01 19.616,32.323 19.408,34.578C19.319,35.439 19.097,36.849 18.904,37.725L18.533,39.298L18.83,40.247C19.304,41.731 19.72,42.355 20.284,42.414C20.685,42.458 20.803,42.384 21.056,41.969C21.649,40.989 21.768,39.698 21.857,33.866C21.901,30.824 22.02,27.737 22.124,26.995L22.302,25.674L21.709,24.814L21.1,23.953L21.679,23.063C21.991,22.588 22.688,21.415 23.207,20.466C23.742,19.516 24.484,18.403 24.84,17.972C25.686,16.978 25.686,16.652 24.869,15.836C23.846,14.797 22.376,14.248 21.976,14.723Z" style="fill:rgb(255,0,0);fill-rule:nonzero;"/>
        <path d="M30.553,15.776C30.36,15.88 30.123,16.147 30.049,16.37C29.915,16.726 29.96,16.919 30.316,17.527C30.85,18.477 31.132,20.792 31.147,24.146L31.147,26.535L30.746,26.624C30.509,26.669 28.832,26.906 26.992,27.158C25.151,27.396 23.415,27.678 23.118,27.752C22.035,28.049 22.287,28.687 23.801,29.399C24.914,29.934 25.3,29.934 28.253,29.384C29.559,29.147 30.746,28.939 30.895,28.939C31.132,28.939 31.147,29.206 31.147,32.575C31.147,34.667 31.087,36.211 31.013,36.211C30.731,36.211 25.419,36.968 25.181,37.042C24.365,37.294 24.573,37.962 25.626,38.496C27.021,39.209 27.348,39.223 30.004,38.823C33.031,38.348 34.694,38.185 38.047,37.992C41.297,37.799 41.475,37.769 41.787,37.294C42.039,36.908 42.039,36.908 41.268,36.196C39.888,34.935 39.175,34.831 35.747,35.454C34.812,35.617 34.041,35.766 34.026,35.766C33.996,35.766 34.159,28.553 34.204,28.509C34.308,28.405 37.81,28.064 40.719,27.9C43.998,27.693 44.651,27.544 44.651,26.951C44.651,26.238 42.945,25.081 41.668,24.962C41.119,24.918 37.869,25.407 34.501,26.075L34.07,26.149L34.174,24.25C34.323,21.579 34.664,19.234 35.02,18.566C35.243,18.136 35.272,17.913 35.168,17.646C34.886,16.919 33.759,16.207 32.23,15.806C31.206,15.539 31.028,15.539 30.553,15.776Z" style="fill:rgb(255,0,0);fill-rule:nonzero;"/>
    </g>
</svg>
